X: 29144
T: Nessie's Farewell
R: jig
M: 6/8
K: Dmajor
|:f2f gfe|d2f A2A|e2g B2 B|Ace age|
f2f gfe|d2f A2 A|BgB aec|1 Ace age:|2 dfe d3||
|:aff Adf|agg Bdg|aff Adf|Ace age|
aff Adf|agg Bdg|BgB aec|dfe d3:|
|:Acc cBc|ece gec|Add dcd|fdf afd|
Bgg gfg|Aff fef|efe efg|Ace age:|

